src/assets/filled/MoneySend.svg

<?xml version="1.0" encoding="UTF-8"?>
<svg width="24" height="24" viewBox="0 0 24 24" xmlns="http://www.w3.org/2000/svg">
 <path d="m10.25 10.03c0 0.54 0.15 0.62 0.49 0.74l0.51 0.18v-1.7h-0.3c-0.38 0-0.7 0.35-0.7 0.78z"/>
 <path d="m12.75 14.75h0.3c0.39 0 0.7-0.35 0.7-0.78 0-0.54-0.15-0.62-0.49-0.74l-0.51-0.18v1.7z"/>
 <path d="m19.58 5.48-2.05 2.05c-0.15 0.15-0.34 0.22-0.53 0.22s-0.38-0.07-0.53-0.22c-0.29-0.29-0.29-0.77 0-1.06l2.05-2.05c-1.76-1.5-4.03-2.42-6.52-2.42-5.52 0-10 4.48-10 10s4.48 10 10 10 10-4.48 10-10c0-2.49-0.92-4.76-2.42-6.52zm-5.83 6.34c0.64 0.23 1.5 0.69 1.5 2.16 0 1.25-0.99 2.28-2.2 2.28h-0.3v0.25c0 0.41-0.34 0.75-0.75 0.75s-0.75-0.34-0.75-0.75v-0.25h-0.08c-1.33 0-2.42-1.12-2.42-2.5 0-0.42 0.34-0.76 0.75-0.76s0.75 0.34 0.75 0.75c0 0.55 0.41 1 0.92 1h0.08v-2.22l-1-0.35c-0.64-0.23-1.5-0.69-1.5-2.16 0-1.25 0.99-2.28 2.2-2.28h0.3v-0.24c0-0.41 0.34-0.75 0.75-0.75s0.75 0.34 0.75 0.75v0.25h0.08c1.33 0 2.42 1.12 2.42 2.5 0 0.41-0.34 0.75-0.75 0.75s-0.75-0.34-0.75-0.75c0-0.55-0.41-1-0.92-1h-0.08v2.22l1 0.35z"/>
 <path d="m22.69 1.71c-0.08-0.18-0.22-0.33-0.41-0.41-0.09-0.03-0.18-0.05-0.28-0.05h-4c-0.41 0-0.75 0.34-0.75 0.75s0.34 0.75 0.75 0.75h2.19l-1.67 1.67c0.38 0.33 0.73 0.68 1.06 1.06l1.67-1.67v2.19c0 0.41 0.34 0.75 0.75 0.75s0.75-0.34 0.75-0.75v-4c0-0.1-0.02-0.19-0.06-0.29z"/>
</svg>

<svg width="24" height="24" viewBox="0 0 24 24"  xmlns="http://www.w3.org/2000/svg">
<path d="M10.25 10.03C10.25 10.57 10.4 10.65 10.74 10.77L11.25 10.95V9.25H10.95C10.57 9.25 10.25 9.6 10.25 10.03Z" />
<path d="M12.75 14.75H13.05C13.44 14.75 13.75 14.4 13.75 13.97C13.75 13.43 13.6 13.35 13.26 13.23L12.75 13.05V14.75Z" />
<path d="M19.58 5.48L17.53 7.53C17.38 7.68 17.19 7.75 17 7.75C16.81 7.75 16.62 7.68 16.47 7.53C16.18 7.24 16.18 6.76 16.47 6.47L18.52 4.42C16.76 2.92 14.49 2 12 2C6.48 2 2 6.48 2 12C2 17.52 6.48 22 12 22C17.52 22 22 17.52 22 12C22 9.51 21.08 7.24 19.58 5.48ZM13.75 11.82C14.39 12.05 15.25 12.51 15.25 13.98C15.25 15.23 14.26 16.26 13.05 16.26H12.75V16.51C12.75 16.92 12.41 17.26 12 17.26C11.59 17.26 11.25 16.92 11.25 16.51V16.26H11.17C9.84 16.26 8.75 15.14 8.75 13.76C8.75 13.34 9.09 13 9.5 13C9.91 13 10.25 13.34 10.25 13.75C10.25 14.3 10.66 14.75 11.17 14.75H11.25V12.53L10.25 12.18C9.61 11.95 8.75 11.49 8.75 10.02C8.75 8.77 9.74 7.74 10.95 7.74H11.25V7.5C11.25 7.09 11.59 6.75 12 6.75C12.41 6.75 12.75 7.09 12.75 7.5V7.75H12.83C14.16 7.75 15.25 8.87 15.25 10.25C15.25 10.66 14.91 11 14.5 11C14.09 11 13.75 10.66 13.75 10.25C13.75 9.7 13.34 9.25 12.83 9.25H12.75V11.47L13.75 11.82Z" />
<path d="M22.69 1.71C22.61 1.53 22.47 1.38 22.28 1.3C22.19 1.27 22.1 1.25 22 1.25H18C17.59 1.25 17.25 1.59 17.25 2C17.25 2.41 17.59 2.75 18 2.75H20.19L18.52 4.42C18.9 4.75 19.25 5.1 19.58 5.48L21.25 3.81V6C21.25 6.41 21.59 6.75 22 6.75C22.41 6.75 22.75 6.41 22.75 6V2C22.75 1.9 22.73 1.81 22.69 1.71Z" />
</svg>
